src/assets/DaggerRightIcon.svg

<?xml version="1.0" encoding="UTF-8" standalone="no"?>
<!-- Created with Inkscape (http://www.inkscape.org/) -->

<svg
   width="180"
   height="55"
   viewBox="0 0 47.624999 14.552083"
   version="1.1"
   id="svg42439"
   xmlns="http://www.w3.org/2000/svg"
   xmlns:svg="http://www.w3.org/2000/svg">
  <defs
     id="defs42436" />
  <g
     id="layer1">
    <path
       style="fill:#83ffcd;fill-opacity:1;stroke:none;stroke-width:0.122654px;stroke-linecap:butt;stroke-linejoin:miter;stroke-opacity:1"
       d="M 0.20854366,7.62201 3.8787997,7.0038325 29.500317,4.8513728 30.734425,6.7743119 31.846937,5.7956935 32.71323,0.61659019 34.087734,6.0093491 47.416456,7.030315 34.270255,8.5056925 32.948182,13.935493 31.742326,8.8938537 30.743863,8.0426538 29.607697,9.8160304 3.8785757,8.253287 Z"
       id="path41843" />
  </g>
</svg>

<?xml version="1.0" encoding="UTF-8"?>
<!-- Created with Inkscape (http://www.inkscape.org/) -->
<svg width="180" height="55" version="1.1" viewBox="0 0 47.625 14.552" xmlns="http://www.w3.org/2000/svg">
 <path d="m0.20854 7.622 3.6703-0.61818 25.622-2.1525 1.2341 1.9229 1.1125-0.97862 0.86629-5.1791 1.3745 5.3928 13.329 1.021-13.146 1.4754-1.3221 5.4298-1.2059-5.0416-0.99846-0.8512-1.1362 1.7734-25.729-1.5627z" fill="#83ffcd"/>
</svg>
